src/pages/elements/images/i-m-harder-to-read-desktop.svg

<svg xmlns="http://www.w3.org/2000/svg" viewBox="0 0 928 176"><g fill="none" fill-rule="evenodd"><path fill="#FFF" d="M0 0h928v176H0z"/><path d="M80.48 115H60.32v-5.04h7.056V69.784H60.32v-5.04h20.16v5.04h-7.056v40.176h7.056V115zm14.472-54c3.024 0 4.392 1.728 4.392 4.248v1.008c0 3.888-2.448 9.216-6.552 12.744h-4.824c2.88-3.024 4.608-5.544 5.4-8.928-1.944-.432-2.808-1.872-2.808-3.816v-1.008c0-2.52 1.368-4.248 4.392-4.248zm16.2 54V64.744h8.064l14.4 27.072h.36l14.472-27.072h7.776V115h-5.904V72.664h-.36l-4.248 8.424-12.024 21.888-12.024-21.888-4.248-8.424h-.36V115h-5.904zm106.92 0V92.248h-25.416V115h-6.048V64.744h6.048V86.92h25.416V64.744h6.048V115h-6.048zm57.24 0h-6.336l-5.04-14.832h-20.304L238.592 115h-6.12l17.568-50.256h7.704L275.312 115zm-12.888-20.16l-8.496-24.48h-.36l-8.496 24.48h17.352zm27.288-1.44V115h-6.048V64.744h20.016c8.784 0 14.04 5.112 14.04 14.256 0 7.344-3.528 12.312-10.08 13.824L319.16 115h-6.84l-10.872-21.6h-11.736zm0-5.184h13.968c4.752 0 7.56-2.592 7.56-7.2v-3.744c0-4.608-2.808-7.2-7.56-7.2h-13.968v18.144zM329.744 115V64.744h16.848c12.528 0 20.592 8.352 20.592 25.128S359.12 115 346.592 115h-16.848zm6.048-5.328h10.8c8.28 0 14.112-5.76 14.112-15.696v-8.208c0-9.936-5.832-15.696-14.112-15.696h-10.8v39.6zM408.728 115h-30.672V64.744h30.672v5.328h-24.624V86.92h23.184v5.328h-23.184v17.424h24.624V115zm17.352-21.6V115h-6.048V64.744h20.016c8.784 0 14.04 5.112 14.04 14.256 0 7.344-3.528 12.312-10.08 13.824L455.528 115h-6.84l-10.872-21.6H426.08zm0-5.184h13.968c4.752 0 7.56-2.592 7.56-7.2v-3.744c0-4.608-2.808-7.2-7.56-7.2H426.08v18.144zm89.928-18.144h-15.984V115h-6.048V70.072h-15.984v-5.328h38.016v5.328zm25.632 45.792c-12.96 0-21.312-9.144-21.312-25.992S528.68 63.88 541.64 63.88s21.312 9.144 21.312 25.992-8.352 25.992-21.312 25.992zm0-5.4c8.712 0 14.832-6.48 14.832-16.416v-8.352c0-9.936-6.12-16.416-14.832-16.416s-14.832 6.48-14.832 16.416v8.352c0 9.936 6.12 16.416 14.832 16.416zM596.864 93.4V115h-6.048V64.744h20.016c8.784 0 14.04 5.112 14.04 14.256 0 7.344-3.528 12.312-10.08 13.824L626.312 115h-6.84L608.6 93.4h-11.736zm0-5.184h13.968c4.752 0 7.56-2.592 7.56-7.2v-3.744c0-4.608-2.808-7.2-7.56-7.2h-13.968v18.144zM667.568 115h-30.672V64.744h30.672v5.328h-24.624V86.92h23.184v5.328h-23.184v17.424h24.624V115zm49.104 0h-6.336l-5.04-14.832h-20.304L679.952 115h-6.12L691.4 64.744h7.704L716.672 115zm-12.888-20.16l-8.496-24.48h-.36l-8.496 24.48h17.352zm21.24 20.16V64.744h16.848c12.528 0 20.592 8.352 20.592 25.128S754.4 115 741.872 115h-16.848zm6.048-5.328h10.8c8.28 0 14.112-5.76 14.112-15.696v-8.208c0-9.936-5.832-15.696-14.112-15.696h-10.8v39.6zm43.2 6.192c-3.024 0-4.392-1.728-4.392-4.176v-.936c0-2.448 1.368-4.176 4.392-4.176s4.392 1.728 4.392 4.176v.936c0 2.448-1.368 4.176-4.392 4.176z" fill="#3D3D3D"/></g></svg>

<?xml version="1.0" encoding="UTF-8"?>
<svg width="928px" height="176px" viewBox="0 0 928 176" version="1.1" xmlns="http://www.w3.org/2000/svg" xmlns:xlink="http://www.w3.org/1999/xlink">
    <!-- Generator: Sketch 51.2 (57519) - http://www.bohemiancoding.com/sketch -->
    <title>Group 41</title>
    <desc>Created with Sketch.</desc>
    <defs></defs>
    <g id="Page-1" stroke="none" stroke-width="1" fill="none" fill-rule="evenodd">
        <g id="Type-Basics-Copy" transform="translate(-352.000000, -7445.000000)">
            <g id="Group-41" transform="translate(352.000000, 7445.000000)">
                <rect id="Rectangle-16-Copy-168" fill="#FFFFFF" x="0" y="0" width="928" height="176"></rect>
                <path d="M80.48,115 L60.32,115 L60.32,109.96 L67.376,109.96 L67.376,69.784 L60.32,69.784 L60.32,64.744 L80.48,64.744 L80.48,69.784 L73.424,69.784 L73.424,109.96 L80.48,109.96 L80.48,115 Z M94.952,61 C97.976,61 99.344,62.728 99.344,65.248 L99.344,66.256 C99.344,70.144 96.896,75.472 92.792,79 L87.968,79 C90.848,75.976 92.576,73.456 93.368,70.072 C91.424,69.64 90.56,68.2 90.56,66.256 L90.56,65.248 C90.56,62.728 91.928,61 94.952,61 Z M111.152,115 L111.152,64.744 L119.216,64.744 L133.616,91.816 L133.976,91.816 L148.448,64.744 L156.224,64.744 L156.224,115 L150.32,115 L150.32,72.664 L149.96,72.664 L145.712,81.088 L133.688,102.976 L121.664,81.088 L117.416,72.664 L117.056,72.664 L117.056,115 L111.152,115 Z M218.072,115 L218.072,92.248 L192.656,92.248 L192.656,115 L186.608,115 L186.608,64.744 L192.656,64.744 L192.656,86.92 L218.072,86.92 L218.072,64.744 L224.12,64.744 L224.12,115 L218.072,115 Z M275.312,115 L268.976,115 L263.936,100.168 L243.632,100.168 L238.592,115 L232.472,115 L250.04,64.744 L257.744,64.744 L275.312,115 Z M262.424,94.84 L253.928,70.36 L253.568,70.36 L245.072,94.84 L262.424,94.84 Z M289.712,93.4 L289.712,115 L283.664,115 L283.664,64.744 L303.68,64.744 C312.464,64.744 317.72,69.856 317.72,79 C317.72,86.344 314.192,91.312 307.64,92.824 L319.16,115 L312.32,115 L301.448,93.4 L289.712,93.4 Z M289.712,88.216 L303.68,88.216 C308.432,88.216 311.24,85.624 311.24,81.016 L311.24,77.272 C311.24,72.664 308.432,70.072 303.68,70.072 L289.712,70.072 L289.712,88.216 Z M329.744,115 L329.744,64.744 L346.592,64.744 C359.12,64.744 367.184,73.096 367.184,89.872 C367.184,106.648 359.12,115 346.592,115 L329.744,115 Z M335.792,109.672 L346.592,109.672 C354.872,109.672 360.704,103.912 360.704,93.976 L360.704,85.768 C360.704,75.832 354.872,70.072 346.592,70.072 L335.792,70.072 L335.792,109.672 Z M408.728,115 L378.056,115 L378.056,64.744 L408.728,64.744 L408.728,70.072 L384.104,70.072 L384.104,86.92 L407.288,86.92 L407.288,92.248 L384.104,92.248 L384.104,109.672 L408.728,109.672 L408.728,115 Z M426.08,93.4 L426.08,115 L420.032,115 L420.032,64.744 L440.048,64.744 C448.832,64.744 454.088,69.856 454.088,79 C454.088,86.344 450.56,91.312 444.008,92.824 L455.528,115 L448.688,115 L437.816,93.4 L426.08,93.4 Z M426.08,88.216 L440.048,88.216 C444.8,88.216 447.608,85.624 447.608,81.016 L447.608,77.272 C447.608,72.664 444.8,70.072 440.048,70.072 L426.08,70.072 L426.08,88.216 Z M516.008,70.072 L500.024,70.072 L500.024,115 L493.976,115 L493.976,70.072 L477.992,70.072 L477.992,64.744 L516.008,64.744 L516.008,70.072 Z M541.64,115.864 C528.68,115.864 520.328,106.72 520.328,89.872 C520.328,73.024 528.68,63.88 541.64,63.88 C554.6,63.88 562.952,73.024 562.952,89.872 C562.952,106.72 554.6,115.864 541.64,115.864 Z M541.64,110.464 C550.352,110.464 556.472,103.984 556.472,94.048 L556.472,85.696 C556.472,75.76 550.352,69.28 541.64,69.28 C532.928,69.28 526.808,75.76 526.808,85.696 L526.808,94.048 C526.808,103.984 532.928,110.464 541.64,110.464 Z M596.864,93.4 L596.864,115 L590.816,115 L590.816,64.744 L610.832,64.744 C619.616,64.744 624.872,69.856 624.872,79 C624.872,86.344 621.344,91.312 614.792,92.824 L626.312,115 L619.472,115 L608.6,93.4 L596.864,93.4 Z M596.864,88.216 L610.832,88.216 C615.584,88.216 618.392,85.624 618.392,81.016 L618.392,77.272 C618.392,72.664 615.584,70.072 610.832,70.072 L596.864,70.072 L596.864,88.216 Z M667.568,115 L636.896,115 L636.896,64.744 L667.568,64.744 L667.568,70.072 L642.944,70.072 L642.944,86.92 L666.128,86.92 L666.128,92.248 L642.944,92.248 L642.944,109.672 L667.568,109.672 L667.568,115 Z M716.672,115 L710.336,115 L705.296,100.168 L684.992,100.168 L679.952,115 L673.832,115 L691.4,64.744 L699.104,64.744 L716.672,115 Z M703.784,94.84 L695.288,70.36 L694.928,70.36 L686.432,94.84 L703.784,94.84 Z M725.024,115 L725.024,64.744 L741.872,64.744 C754.4,64.744 762.464,73.096 762.464,89.872 C762.464,106.648 754.4,115 741.872,115 L725.024,115 Z M731.072,109.672 L741.872,109.672 C750.152,109.672 755.984,103.912 755.984,93.976 L755.984,85.768 C755.984,75.832 750.152,70.072 741.872,70.072 L731.072,70.072 L731.072,109.672 Z M774.272,115.864 C771.248,115.864 769.88,114.136 769.88,111.688 L769.88,110.752 C769.88,108.304 771.248,106.576 774.272,106.576 C777.296,106.576 778.664,108.304 778.664,110.752 L778.664,111.688 C778.664,114.136 777.296,115.864 774.272,115.864 Z" id="I’M-HARDER-TO-READ." fill="#3D3D3D"></path>
            </g>
        </g>
    </g>
</svg>
